X: 21504
M: 2/4
L: 1/16
K: C
V: 1
ef |\
gag^f g2c'2 | efed e2g2 |\
(cdef agfe) | dcde d2ef |\
gag^f g2c'2 | efed e2g2 |
fedc BcdB | c2e2c2 :|\
dedc d2cd | efed e2g2 |\
fgab c'agf | gabc' d'2Bc |
dedc d2cd | efed e2g2 |\
fgab c'agf | (gagf gagf) |\
(gagf gfef) | gagf g4 c'4 :|


